!!!OTL: Die Gedanken sind frei, S. 64
!!!id: R0058
**kern
*clefG2
*k[]
*C:
{8g
8g
=1
4cc
4cc
8ee
8cc
=2
2g}
=3
{4g
=4
4f
4d
4g
=5
4e
4c}
=6
{4g
=7
4cc
4cc
8ee
8cc
=8
2g}
=9
{4g
=10
4f
4d
4g
=11
4e
4c}
=12
{4cc
=13
4b
4.dd
8b
=14
4cc
4ee}
=15
{4cc
=16
4b
4.dd
8b
=17
4cc
4ee}
=18
{4cc
=19
4a
4a
8cc
8a
=20
2g}
=21
{8g
8ee
=22
8ee
8dd
4cc
4b
=23
2cc}
==
*-
!!!minrhy: 8
!!!meters: 3/4 ]  ZZ[8
!!!cut: Die Gedanken sind frei, S. 64
!!!reg: Luxemburg
!!!trd: D'Fraen um Kanddaaf an der aler Zeit, Luxemburg 1929
!!!rhy1: XX  X_X_XX  X__
!!!rhy2: X_  X_X_X_  X_X_
!!!key: R0058  08  C 3/4 ]  ZZ[8
!!!mod: HEPTATONIK IONISCH]  AMBITUS[10
!!!kad: 5151+3+35+1
!!!akz: +15_43_+15_43_7+1_7+1_65_+3+1_
!!!fot: 'a__b__av_b__c__c__d__e__
!!!for: 'a__b__av_b__c__c__av_d__
!!!fok: '^__\__^__\__/__/__\__^a_
!! PHRAS[AUFTAKTIG]
!!!fkt: ??
!! RUDEN, J.M.:
!! PR[23] 2K[7] 2G[16] 3K[5] 3G[0] 4A[2] 4Ü[0] 5A[2] 6K[0] 6G[2]
!! 7K[1] 7G[0] 8A[0] MEHR[0] SI[36] ABS[87] SR[23] SP[13]
!! ST[16] 2k[9] 2g[22] 3k[3] 3g[0] 4d[3] 4ü[0] 5d[2] 6k[0] 6g[1]
!! 7k[0] 7g[0] 8d[0] mehr[0] si[41] dm[-5] sr[31] sp[10]
!! 1F[5] 2F[77] 3F[10] 4F[2] LF[0] 2P[5] 3P[0] 4P[0] TRI[0] DF[5] AB[96]
!! TF[0] U3K[0] U3[0] U4[0] U4Ü[0] U5[22] U6K[0] U6[11] U7K[0] U7[8]
!! N1[18] N2K[0] N2[17] N3K[0] N3[17] N4[6] N4Ü[0] N5[1] N6K[0] N6[0]
!!!n7k: 0] N7[0] O1[0] O2K[0] O2[0] O3K[0] O3[0] HÖ[0
